X:1
T:We Scatter Seeds
T:We Scatter Seeds
T:James Holmes Rosecrans
T:John Deble, 1882
T:Public Domain Courtesy of the Cyber Hymnal™
C:James Holmes Rosecrans
Z:Public Domain
Z:Courtesy of the Cyber Hymnal™
%%score ( 1 2 ) ( 3 4 )
L:1/8
Q:1/4=107
M:4/4
K:G
V:1 treble 
V:2 treble 
V:3 bass 
V:4 bass 
V:1
 BA | G2 G2 G2 EF | G2 G2 G2 [B,D]2 | [CE]2 [DF]2 [EG]2 [FA]2 | [GB]3 [GB] [FA]2 [FA]2 | %5
w: 1.~We scat-|ter seeds with care- less|hand, And dream we|ne’er shall see them|more; But for a|
w: 2.~The deeds|we do, the words we|say, In- to still|air they seem to|fleet; We count them|
w: 3.~I charge|thee by the years gone|by, For the love’s|sake of breth- ren|dear, Keep, then, the|
 [GB]2 [GB]2 [G^c]2 [Gc]2 | [Fd]6 ([EA][EG]) | [DF]4 [^CE]4 | D6 ([B,D][CE]) | %9
w: thou- sand years Their|fruit ap- *|pears, In|weeds that *|
w: ev- er past; But|they shall *|last— In|the dread *|
w: one true way In|work or *|play, Lest|in that *|
 [DF]2 [EG]2 [FA]2 [GB]2 | [Ac]6 ([GB][EA]) | [DG]4 [DF]4 | [DG]6 |] %13
w: mar the land, Or|health- ful *|store. *||
w: judg- ment day, And|we shall *|meet. *||
w: world their cry Of|woe thou *|hear. *||
V:2
 (BA) | G2 G2 G2 (EF) | G2 G2 G2 x2 | x8 | x8 | x8 | x8 | x8 | D6 x2 | x8 | x8 | x8 | x6 |] %13
V:3
 B,A, | G,2 G,2 G,2 E,F, | G,2 G,2 G,2 [B,,D,]2 | [C,E,]2 [D,F,]2 [E,G,]2 [F,A,]2 | %4
 [G,B,]3 [G,B,] [D,D]2 [D,D]2 | [G,D]2 [G,D]2 [E,A,]2 [E,A,]2 | [D,A,]6 ([F,A,][G,B,]) | %7
 A,4 [A,,G,]4 | [D,F,]6 ([B,,D,][C,E,]) | [D,F,]2 [E,G,]2 [F,A,]2 [G,B,]2 | [A,C]6 ([B,,D][C,C]) | %11
 [D,B,]4 (A,2 C2) | [G,,B,]6 |] %13
V:4
 (B,A,) | G,2 G,2 G,2 (E,F,) | G,2 G,2 G,2 x2 | x8 | x8 | x8 | x8 | A,4 x4 | x8 | x8 | x8 | %11
 x4 D,4 | x6 |] %13

